!! "Miss Ka's Piece", Item 9 from Laurence Picken et al
!! "Music From the Tang Court" Vol. 4, Cambridge University Press
!! (Cambridge) 1987; pp. 12-14
!! NOTE: This file contains an amalgamation of four coordinated ms sources.
!! SGYR	JCYR	SSSTF	KF/HSFRK (manuscripts)
!! Lute	Zither	Mouth	Mouth
!!		Organ	Organ
**kern	**kern	**kern	**kern
*M4/2	*M4/2	*M4/2	*M4/2
=1	=1	=1	=1
4D	4d 4dd	4dd	4dd
4d	4dd	8.dd	4dd
.	.	32b	.
.	.	32a	.
{8F#	4e 4ee	8ff#	4ee
8E}	.	8ee	.
8D	4d 8dd	4dd	4dd
8d	8dd	.	.
4E	4e 4ee	4ee	4ee
4E	4ee	8.ee	4ee
.	.	32b	.
.	.	32a	.
{16F#	4f# 4ff#	4ff#	4ff#
16E	.	.	.
8F#}	.	.	.
8A	4a 8aa	4a	4a
8A	8aa	.	.
=2	=2	=2	=2
4D	4d 4dd	32ff#	4dd
.	.	32ee	.
.	.	8.dd	.
8d	8dd	4b	4b
8B	8b	.	.
{16c#	{4B 8cc#	4ccc	4ccc
16B	.	.	.
8c#}	8b}	.	.
4d	4d 8dd	8.dd	4dd
.	8dd	.	.
.	.	32b	.
.	.	32a	.
{8F#	{4e 8ff#	8ff#	4ee
8E}	8ee}	8ee	.
8D	4d 8dd	4dd	4dd
8d	8dd	.	.
2d	2d 2dd	2dd	2dd
=3	=3	=3	=3
{16F#	4f# 4ff#	4ff#	4ff#
16E	.	.	.
8F#}	.	.	.
8A	8ff#	8ff#	4a
8A	8aa	8aa	.
{8F#	{4d 8ff#	8ff#	4ee
8E}	8ee}	8ee	.
4D	4d 8dd	4dd	4dd
8d	8dd	.	.
4D	4d 4dd	4dd	4dd
8d	8dd	4ff#	4ff#
8F#	.	.	.
{16G#	{4f# 8gg#	4gg	4gg
16F#	.	.	.
8G#}	8ff#}	.	.
8A	4a 8aa	4a	4a
8A	8aa	.	.
=4	=4	=4	=4
4DD	4d 4dd	8dd	4dd
.	.	8b	.
8d	8dd	4ccc	4ccc
{32c#	{32cc#	.	.
32B	32b	.	.
16c#}	16cc#}	.	.
{8c#	{4B 8cc#	8ccc	4b
8B}	8b}	8b	.
8A	4A 8a	4a	4a
8A	8a	.	.
{8c#	{4B 8cc#	4ccc	4ccc
8B}	8b}	.	.
4AA	4A 8a	4a	4a
.	8a	.	.
4A	4A 4a	2a	2a
4A	4a	.	.
=5	=5	=5	=5
4D	4d 4dd	4dd	4dd
4d	4dd	8.dd	4dd
.	.	32b	.
.	.	32a	.
{8F#	4e 4ee	8ff#	4ee
8E}	.	8ee	.
8D	4d 8dd	4dd	4dd
8d	8dd	.	.
4E	4e 4ee	4ee	4ee
4E	4ee	8.ee	4ee
.	.	32b	.
.	.	32a	.
{16F#	4f# 4ff#	4ff#	4ff#
16E	.	.	.
8F#}	.	.	.
8A	4a 8aa	4a	4a
8A	8aa	.	.
=6	=6	=6	=6
4D	4d 4dd	32ff#	4dd
.	.	32ee	.
.	.	8.dd	.
8d	8dd	4b	4b
8B	8b	.	.
{16c#	{4B 8cc#	4ccc	4ccc
16B	.	.	.
8c#}	8b}	.	.
4d	4d 8dd	8.dd	4dd
.	8dd	.	.
.	.	32b	.
.	.	32a	.
{8F#	{4e 8ff#	8ff#	4ee
8E}	8ee}	8ee	.
8D	4d 8dd	4dd	4dd
8d	8dd	.	.
2d	2d 2dd	2dd	2dd
=7	=7	=7	=7
{16F#	4f# 4ff#	4ff#	4ff#
16E	.	.	.
8F#}	.	.	.
8A	8ff#	8ff#	4a
8A	8aa	8aa	.
{8F#	{4d 8ff#	8ff#	4ee
8E}	8ee}	8ee	.
4D	4d 8dd	4dd	4dd
8d	8dd	.	.
4D	4d 4dd	4dd	4dd
8d	8dd	4ff#	4ff#
8F#	.	.	.
{16G#	{4f# 8gg#	4gg	4gg
16F#	.	.	.
8G#}	8ff#}	.	.
8A	4a 8aa	4a	4a
8A	8aa	.	.
=8	=8	=8	=8
4DD	4d 4dd	8dd	4dd
.	.	8b	.
8d	8dd	4ccc	4ccc
{32c#	{32cc#	.	.
32B	32b	.	.
16c#}	16cc#}	.	.
{8c#	{4B 8cc#	8ccc	4b
8B}	8b}	8b	.
8A	4A 8a	4a	4a
8A	8a	.	.
{8c#	{4B 8cc#	4ccc	4ccc
8B}	8b}	.	.
4AA	4A 8a	4a	4a
.	8a	.	.
4A	4A 4a	2a	2a
4A	4a	.	.
=9	=9	=9	=9
4AA	4a 4aa	4a	4a
4A	4aa	4a	4a
{8G#	{4f# 8gg#	8gg	8gg
8F#}	8ff#}	8ff#	8ff#
8E	4e 8ee	4ee	4ee
8E	8ee	.	.
{16G#	{4f# 16gg#	4gg	4gg
16F#	16ff#	.	.
16G#	16gg#	.	.
16F#	16ff#	.	.
8G#}	8gg#}	32ccc	4b
.	.	[32b	.
.	.	8.b]	.
8B	8b	.	.
4d	4d 4dd	{16dd	8dd
.	.	16ccc}	.
.	.	{8b	16ccc
.	.	.	16b
{16c#	{4B 16cc#	4a}	4a
16B}	16b}	.	.
8A	8a	.	.
=10	=10	=10	=10
{8F#	4D 4e	4ee	4ee
8E}	.	.	.
8A	4A 8a	32b	4a
.	.	[32a	.
.	.	8.a]	.
8A	8a	.	.
{16d	4d 4dd	4dd	4dd
16c#	.	.	.
8d}	.	.	.
8E	4e 8ee	4ee	4ee
8E	8ee	.	.
2E	2e 2ee	4..ee	2ee
.	.	32b	.
.	.	32a	.
4F#	4f# 4ff#	4ff#	4ff#
{16G#	4gg#	4gg	4gg
16F#	.	.	.
8G#}	.	.	.
=11	=11	=11	=11
{8c#	{4B 8cc#	{8ccc	4b
8B}	8b}	8b	.
8A	4A 8a	4a}	4a
8A	8a	.	.
{8G#	{4D 8g#	{8gg	8gg
8F#}	8f#}	8ff#	8ff#
4E	4e	4ee}	4ee
4E	4D 4e	4ee	4ee
4E	4e	4ee	4ee
8F#	4D 8e	{8ff#	8ff#
8A	16a	8a}	8a
.	{32ff#	.	.
.	32ee	.	.
{16G#	32b	4gg	4gg
.	32a	.	.
16F#	16g#	.	.
8G#}	8f#}	.	.
=12	=12	=12	=12
{8c#	{4B 16cc#	32b	4b
.	.	32a	.
.	16b	[8.b	.
8B}	8cc#}	.	.
4B	4b	4b]	4b
{16c#	4B 4b	4ccc	4ccc
16B	.	.	.
8c#}	.	.	.
8D	4d 8dd	4dd	4dd
8d	8dd	.	.
{8F#	{4e 8ff#	8ff#	4ee
8E}	8ee	8ee	.
8D	4d 8dd	4dd	4dd
8d	8dd	.	.
2d	2d 2dd	4..dd	2dd
.	.	32b	.
.	.	32a	.
=13	=13	=13	=13
4A	4A 4a	4a	4a
8A	8a	4b	4b
{16c#	8b	.	.
16B}	.	.	.
4D	4d 4dd	4dd	4dd
8d	8dd	4b	4b
{16c#	8b	.	.
16B}	.	.	.
4D	4d 4dd	8.dd	4dd
.	.	32b	.
.	.	32a	.
8d	4f# 8ff#	4ff#	4ff#
{32F#	8ff#	.	.
32E	.	.	.
16F#}	.	.	.
{8c#	{4B 8cc#	8ccc	4b
8B}	8b}	8dd	.
8A	4A 8a	4a	4a
8A	8a	.	.
=14	=14	=14	=14
4F#	4D 4f#	8.ff#	4ff#
.	.	32ee	.
.	.	32dd	.
{8c#	4B 8b	4b	4b
8B}	8b	.	.
4D	4d 4dd	4dd	4dd
8d	8dd	4b	4b
8B	8b	.	.
{8F#	{4e 8ff#	32a	4ee
.	.	[32ff#	.
.	.	16ff#]	.
8E}	8ee}	8ee	.
8D	4d 8dd	4dd	4dd
8d	8dd	.	.
2d	2d 2dd	2dd	2dd
=15	=15	=15	=15
{16d	{4d 16dd	4dd	4dd
16c#	16cc#	.	.
8d}	8dd}	.	.
8BB	{16dd	4b	4b
.	16cc#	.	.
8B	8dd}	.	.
2B	4B 4b	2b	2b
.	4b	.	.
{8c#	4B 4b	2b	4b
8B}	.	.	.
{16B	8b	.	4b
16A}	.	.	.
{32F#	8ff#	.	.
32E	.	.	.
16F#}	.	.	.
4F#	4f# 4ff#	32a	4ff#
.	.	[32ff#	.
.	.	8.ff#]	.
4F#	4ff#	4ff#	4ff#
=16	=16	=16	=16
{8F#	4e 4ee	8ff#	4ee
8E}	.	8ee	.
4d	4d 8dd	4dd	4dd
.	8dd	.	.
{8F#	4e 4ee	8ff#	4ee
8E}	.	8ee	.
8D	4d 8dd	4dd	4dd
8d	8dd	.	.
2d	2d 2dd	1dd	1dd
4D	4d 4dd	.	.
4d	4dd	.	.
====	====	====	====
*-	*-	*-	*-
